illustrations/assets/Grid location/il_axis_grid_location_dark.svg

<svg xmlns="http://www.w3.org/2000/svg" width="230" height="160" fill="none" viewBox="0 0 230 160">
  <path fill="#4D4D4D" d="M115.485 149.8c36.821 0 66.67-29.608 66.67-66.1308 0-36.5231-29.849-66.1309-66.67-66.1309-36.82 0-66.6688 29.6078-66.6688 66.1309 0 36.5228 29.8488 66.1308 66.6688 66.1308Z"/>
  <path fill="#242424" d="M112.733 23.5454c-6.655.2934-13.0888 1.6456-19.0135 3.9135-.3673.3763-.7291.7338-1.0735 1.074l-.0421.0416c-6.8969 6.9846-12.5129 17.069-15.9016 29.0328h36.0307V23.5454ZM81.816 33.6174c-8.9578 5.9716-16.2553 14.2601-20.9954 23.9899H71.258c2.4044-9.0343 6.0206-17.1883 10.558-23.9899ZM58.5735 62.8386c-2.4303 6.4966-3.7611 13.515-3.7611 20.8296 0 7.4246 1.3711 14.5441 3.8716 21.1228h11.3524c-1.3787-6.6835-2.1141-13.7817-2.1141-21.122 0-7.2271.7343-14.226 2.1005-20.8304H58.5735ZM60.9644 110.022c4.7093 9.534 11.8803 17.668 20.6613 23.57-4.4653-6.683-7.9977-14.689-10.357-23.57H60.9644ZM93.6976 139.869c5.9307 2.273 12.3724 3.628 19.0354 3.922v-33.769H76.7123c3.3677 11.904 8.9449 21.879 15.8803 28.73.3657.362.7354.734 1.105 1.117ZM117.986 143.802c6.695-.269 13.171-1.608 19.134-3.874.325-.344.657-.684.995-1.018 6.869-6.957 12.468-16.988 15.861-28.888h-35.99v33.78ZM148.843 133.957c9.062-5.929 16.417-14.202 21.202-23.935h-10.623c-2.415 9.017-6.038 17.152-10.579 23.935ZM172.314 104.791c2.487-6.5787 3.845-13.6982 3.845-21.1228 0-7.3146-1.318-14.333-3.735-20.8296h-11.717c1.363 6.633 2.09 13.6775 2.09 20.976 0 7.2803-.745 14.329-2.131 20.9764h11.648ZM170.189 57.6073c-4.824-9.9456-12.323-18.3853-21.586-24.3838 4.714 6.8708 8.43 15.1559 10.876 24.3838h10.71ZM136.823 27.2966c.395.4407.796.8832 1.208 1.3353.028.0301.056.0595.085.0883 6.964 6.9636 12.555 16.9641 15.92 28.8871h-36.05V23.5348c6.584.2636 12.956 1.5636 18.837 3.7618ZM155.296 104.791c1.453-6.576 2.249-13.6277 2.249-20.9764 0-7.3724-.777-14.4187-2.204-20.976h-37.355v41.9524h37.31ZM112.733 104.791V62.8386H75.3907c-1.432 6.5341-2.2159 13.536-2.2159 20.8304 0 7.4176.7854 14.5178 2.2287 21.122h37.3295Z"/>
  <g filter="url(#filter0_d_3831_5009)">
    <path fill="#F9F8F5" d="M153.734 13c15.472 0 27.984 12.2588 27.984 27.4166 0 12.0931-17.754 36.0308-25.025 45.3077-1.521 1.9879-4.565 1.9879-6.087 0-7.27-9.2769-25.025-33.2146-25.025-45.3077C125.75 25.2588 138.263 13 153.734 13Z"/>
  </g>
  <path fill="#4D4D4D" d="M153.65 52.0105c6.043 0 10.942-5.1119 10.942-11.4177 0-6.3059-4.899-11.4178-10.942-11.4178s-10.942 5.1119-10.942 11.4178c0 6.3058 4.899 11.4177 10.942 11.4177Z"/>
  <defs>
    <filter id="filter0_d_3831_5009" width="63.3372" height="81.4152" x="121.981" y="13" color-interpolation-filters="sRGB" filterUnits="userSpaceOnUse">
      <feFlood flood-opacity="0" result="BackgroundImageFix"/>
      <feColorMatrix in="SourceAlpha" result="hardAlpha" values="0 0 0 0 0 0 0 0 0 0 0 0 0 0 0 0 0 0 127 0"/>
      <feOffset dy="3.6"/>
      <feGaussianBlur stdDeviation="1.8"/>
      <feComposite in2="hardAlpha" operator="out"/>
      <feColorMatrix values="0 0 0 0 0 0 0 0 0 0 0 0 0 0 0 0 0 0 0.25 0"/>
      <feBlend in2="BackgroundImageFix" result="effect1_dropShadow_3831_5009"/>
      <feBlend in="SourceGraphic" in2="effect1_dropShadow_3831_5009" result="shape"/>
    </filter>
  </defs>
</svg>

<svg width="230" height="160" viewBox="0 0 230 160" fill="none" xmlns="http://www.w3.org/2000/svg">
<path d="M115.485 149.8C152.306 149.8 182.155 120.192 182.155 83.6692C182.155 47.1461 152.306 17.5383 115.485 17.5383C78.665 17.5383 48.8162 47.1461 48.8162 83.6692C48.8162 120.192 78.665 149.8 115.485 149.8Z" fill="#4D4D4D"/>
<path d="M112.733 23.5453C106.078 23.8386 99.6442 25.1909 93.7195 27.4588C93.3522 27.8351 92.9904 28.1926 92.646 28.5328L92.6039 28.5744C85.707 35.559 80.091 45.6433 76.7023 57.6071H112.733V23.5453Z" fill="#242424"/>
<path d="M81.816 33.6173C72.8582 39.5889 65.5607 47.8774 60.8206 57.6071H71.2579C73.6624 48.5728 77.2786 40.4189 81.816 33.6173Z" fill="#242424"/>
<path d="M58.5735 62.8385C56.1432 69.3351 54.8124 76.3535 54.8124 83.668C54.8124 91.0927 56.1835 98.2122 58.684 104.791H70.0364C68.6577 98.1073 67.9223 91.0091 67.9223 83.6689C67.9223 76.4418 68.6566 69.4429 70.0228 62.8385H58.5735Z" fill="#242424"/>
<path d="M60.9644 110.022C65.6737 119.556 72.8447 127.69 81.6257 133.591C77.1604 126.909 73.628 118.902 71.2687 110.022H60.9644Z" fill="#242424"/>
<path d="M93.6976 139.869C99.6283 142.142 106.07 143.497 112.733 143.791V110.022H76.7123C80.08 121.926 85.6572 131.901 92.5926 138.752C92.9583 139.114 93.328 139.486 93.6976 139.869Z" fill="#242424"/>
<path d="M117.986 143.801C124.681 143.533 131.157 142.194 137.12 139.928C137.445 139.584 137.777 139.244 138.115 138.909C144.984 131.953 150.583 121.922 153.976 110.022H117.986V143.801Z" fill="#242424"/>
<path d="M148.843 133.957C157.905 128.028 165.26 119.755 170.045 110.022H159.422C157.007 119.038 153.384 127.174 148.843 133.957Z" fill="#242424"/>
<path d="M172.314 104.791C174.801 98.2122 176.159 91.0927 176.159 83.668C176.159 76.3535 174.841 69.3351 172.424 62.8385H160.707C162.07 69.4715 162.797 76.5159 162.797 83.8145C162.797 91.0948 162.052 98.1434 160.666 104.791H172.314Z" fill="#242424"/>
<path d="M170.189 57.6071C165.365 47.6616 157.866 39.2219 148.603 33.2234C153.317 40.0941 157.033 48.3793 159.479 57.6071H170.189Z" fill="#242424"/>
<path d="M136.823 27.2964C137.218 27.7372 137.619 28.1797 138.031 28.6318C138.059 28.6619 138.087 28.6913 138.116 28.7201C145.08 35.6836 150.671 45.6842 154.036 57.6071H117.986V23.5347C124.57 23.7983 130.942 25.0983 136.823 27.2964Z" fill="#242424"/>
<path d="M155.296 104.791C156.749 98.2149 157.545 91.1631 157.545 83.8145C157.545 76.4421 156.768 69.3958 155.341 62.8385H117.986V104.791H155.296Z" fill="#242424"/>
<path d="M112.733 104.791V62.8385H75.3907C73.9587 69.3726 73.1748 76.3745 73.1748 83.6689C73.1748 91.0865 73.9602 98.1866 75.4035 104.791H112.733Z" fill="#242424"/>
<g filter="url(#filter0_d_3831_5009)">
<path d="M153.734 13C169.206 13 181.718 25.2588 181.718 40.4166C181.718 52.5097 163.964 76.4474 156.693 85.7243C155.172 87.7122 152.128 87.7122 150.606 85.7243C143.336 76.4474 125.581 52.5097 125.581 40.4166C125.75 25.2588 138.263 13 153.734 13Z" fill="#F9F8F5"/>
</g>
<path d="M153.65 52.0105C159.693 52.0105 164.592 46.8986 164.592 40.5928C164.592 34.2869 159.693 29.175 153.65 29.175C147.607 29.175 142.708 34.2869 142.708 40.5928C142.708 46.8986 147.607 52.0105 153.65 52.0105Z" fill="#4D4D4D"/>
<defs>
<filter id="filter0_d_3831_5009" x="121.981" y="13" width="63.3372" height="81.4153" filterUnits="userSpaceOnUse" color-interpolation-filters="sRGB">
<feFlood flood-opacity="0" result="BackgroundImageFix"/>
<feColorMatrix in="SourceAlpha" type="matrix" values="0 0 0 0 0 0 0 0 0 0 0 0 0 0 0 0 0 0 127 0" result="hardAlpha"/>
<feOffset dy="3.6"/>
<feGaussianBlur stdDeviation="1.8"/>
<feComposite in2="hardAlpha" operator="out"/>
<feColorMatrix type="matrix" values="0 0 0 0 0 0 0 0 0 0 0 0 0 0 0 0 0 0 0.25 0"/>
<feBlend mode="normal" in2="BackgroundImageFix" result="effect1_dropShadow_3831_5009"/>
<feBlend mode="normal" in="SourceGraphic" in2="effect1_dropShadow_3831_5009" result="shape"/>
</filter>
</defs>
</svg>
